X: 41821
T: View From Barna Gap, The
R: jig
M: 6/8
K: Dmajor
f|:edB efe|BAF A2f|edB e2A|def a2f|
edB efe|BAF A2f|def afe|def e2f:|
def a2a|afd edB|def a2b|afd e2f|
def a2a|afd edB|faf edB|AFA B2A||
def a2a|afd edB|def a2b|afa bfa|
bc'b a2f|efe edB|fbf edB|AFA B3||

